X: 1
T: Sailor's Wife, The
Z: Jim Nikora
S: https://thesession.org/tunes/3140#setting41061
R: jig
M: 6/8
L: 1/8
K: Ddor
|:DEF E2 D|Ade f2 g|agf edc|A/B/cA GEC|
DEF E2 D|Ade f2 g|afd ge^c|1 d3 d3:|2 d3 d2||
|:e|fga a3|fga agf|ecg ecg|efg gfe|
f2a agf|e2g g^fg|afd ge^c|d3 d2:|

